X: 251
M: 2/4
L: 1/8
K: Gdor
|: "2.F."B/c/ |\
ddc=B | c2 zA/B/ | ccBA | B2 zA/B/ |\
ccBA | B2AG | A2^F2 | G3 :|

